Obsidian/actions/24s/fcitx-chttrans-active.svg

<svg height="24" width="24" xmlns="http://www.w3.org/2000/svg"><path d="m2 0c-1.108 0-2 .892-2 2v12c0 1.108.892 2 2 2h12c1.108 0 2-.892 2-2v-12c0-1.108-.892-2-2-2zm5 .5h1v.5h3v-.5h1v.5h2v1h-2v2h-2v1h3v3h-3v1h3v1h-3v1h4v1h-3.662c.257.394.639.782 1.113 1.115.876.616 1.998.998 2.539.987l.02 1c-.944.019-2.111-.451-3.133-1.168-.531-.374-1.0267-.826-1.377-1.346-.3503.52-.8458.972-1.377 1.346-1.0218.717-2.1887 1.187-3.1328 1.168l.0196-1c.541.011 1.6629-.371 2.539-.987.4742-.333.8559-.721 1.1133-1.115h-3.6621v-1h4v-1h-3v-1h3v-1h-3v-3h3v-1h-2v-2h-2v-1h2zm-4.6484 1.8769c.8458.4613 1.6146 1.0202 2.3066 1.6738l-.75.9804c-.7689-.7305-1.5578-1.3458-2.3652-1.8457zm5.6484-.3769v1h3v-1zm-6.2246 3.6531c.7689.4229 1.4792.9031 2.1328 1.4414l-.8066.9804c-.6536-.6536-1.3659-1.1923-2.1348-1.6152zm5.2246.3469v1h2v-1zm3 0v1h2v-1zm-6.8984 2.9863.9804.6934c-.4613 1.8073-1.1352 3.5563-2.0195 5.2483l-1.15234-.809c.92274-1.615 1.65314-3.326 2.19144-5.1327z" fill="#bebebe" transform="translate(4 4)"/></svg>

<svg xmlns="http://www.w3.org/2000/svg" width="24" height="24" version="1.1">
 <defs>
  <style id="current-color-scheme" type="text/css">
   .ColorScheme-Text { color:#bebebe; } .ColorScheme-Highlight { color:#4285f4; }
  </style>
 </defs>
 <g transform="matrix(1,0,0,1,4,4)">
  <path class="ColorScheme-Text" d="M 2,0 C 0.892,0 0,0.892 0,2 V 14 C 0,15.108 0.892,16 2,16 H 14 C 15.108,16 16,15.108 16,14 V 2 C 16,0.892 15.108,0 14,0 Z M 7,0.5 H 8 V 1 H 11 V 0.5 H 12 V 1 H 14 V 2 H 12 V 4 H 10 V 5 H 13 V 8 H 10 V 9 H 13 V 10 H 10 V 11 H 14 V 12 H 10.338 C 10.595,12.394 10.977,12.782 11.451,13.115 12.327,13.731 13.449,14.113 13.99,14.102 L 14.01,15.102 C 13.066,15.121 11.899,14.651 10.877,13.934 10.346,13.56 9.8503,13.108 9.5,12.588 9.1497,13.108 8.6542,13.56 8.123,13.934 7.1012,14.651 5.9343,15.121 4.9902,15.102 L 5.0098,14.102 C 5.5508,14.113 6.6727,13.731 7.5488,13.115 8.023,12.782 8.4047,12.394 8.6621,12 H 5 V 11 H 9 V 10 H 6 V 9 H 9 V 8 H 6 V 5 H 9 V 4 H 7 V 2 H 5 V 1 H 7 Z M 2.3516,2.3769 C 3.1974,2.8382 3.9662,3.3971 4.6582,4.0507 L 3.9082,5.0311 C 3.1393,4.3006 2.3504,3.6853 1.543,3.1854 Z M 8,2 V 3 H 11 V 2 Z M 1.7754,5.6531 C 2.5443,6.076 3.2546,6.5562 3.9082,7.0945 L 3.1016,8.0749 C 2.448,7.4213 1.7357,6.8826 0.9668,6.4597 Z M 7,6 V 7 H 9 V 6 Z M 10,6 V 7 H 12 V 6 Z M 3.1016,8.9863 4.082,9.6797 C 3.6207,11.487 2.9468,13.236 2.0625,14.928 L 0.91016,14.119 C 1.8329,12.504 2.5633,10.793 3.1016,8.9863 Z" style="fill:currentColor"/>
 </g>
</svg>
